microsoft-visual-studio-code.svg

<svg fill="currentColor" viewBox="0 0 24 24"><path d="M17 16.47V7.39l-6 4.54M2.22 9.19a.86.86 0 0 1-.02-1.15l1.2-1.11c.2-.18.69-.26 1.05 0l3.42 2.61 7.93-7.25c.32-.32.87-.45 1.5-.12l4 1.91c.36.21.7.54.7 1.15v13.5c0 .4-.29.83-.6 1l-4.4 2.1c-.32.13-.92.01-1.13-.2l-8.02-7.3-3.4 2.6c-.38.26-.85.19-1.05 0l-1.2-1.1c-.32-.33-.28-.87.05-1.2l3-2.7"/></svg>

<svg  viewBox="0 0 24 24" fill="currentColor"><path  d="M17,16.47V7.39L11,11.93M2.22,9.19C1.92,8.87 1.91,8.37 2.2,8.04L3.4,6.93C3.6,6.75 4.09,6.67 4.45,6.93L7.87,9.54L15.8,2.29C16.12,1.97 16.67,1.84 17.3,2.17L21.3,4.08C21.66,4.29 22,4.62 22,5.23V18.73C22,19.13 21.71,19.56 21.4,19.73L17,21.83C16.68,21.96 16.08,21.84 15.87,21.63L7.85,14.33L4.45,16.93C4.07,17.19 3.6,17.12 3.4,16.93L2.2,15.83C1.88,15.5 1.92,14.96 2.25,14.63L5.25,11.93"/></svg>
